X: 3
T: The Moyglass Fair
M: 2/4
L: 1/8
R: polka
K: A
|: d |\
e/f/a c2 | A>c BA/B/ | cB- B>e | fe B/c/d |
ea cc/B/| Ac B2 | cc/B/ cB | A2 A :|
|: B |\
c/d/c/B/ Ac/e/ | fe c>B | cB- Bc/e/ | fe cc/B/ |
ea cB| Ac B2 | c/d/c/B/ c/d/B | A2- A :|
